epam-assets/icon-sources/18/view-table.svg

<svg width="18" height="18" viewBox="0 0 18 18" fill="none" xmlns="http://www.w3.org/2000/svg">
<g id="18/view-table">
<path id="icon" fill-rule="evenodd" clip-rule="evenodd" d="M2.69025 15.3097C2.98425 15.6032 3.3375 15.75 3.75 15.75H14.25C14.6625 15.75 15.0157 15.6032 15.3097 15.3097C15.6032 15.0157 15.75 14.6625 15.75 14.25V3.75C15.75 3.3375 15.6032 2.98425 15.3097 2.69025C15.0157 2.39675 14.6625 2.25 14.25 2.25H3.75C3.3375 2.25 2.98425 2.39675 2.69025 2.69025C2.39675 2.98425 2.25 3.3375 2.25 3.75V14.25C2.25 14.6625 2.39675 15.0157 2.69025 15.3097ZM8.25 14.25H3.75V10.5H8.25V14.25ZM9.75 14.25H14.25V10.5H9.75V14.25ZM14.25 9V5.25H9.75V9H14.25ZM8.25 5.25V9H3.75V5.25H8.25Z" fill="#6C6F80"/>
</g>
</svg>

<svg xmlns="http://www.w3.org/2000/svg" width="18" height="18" fill="none" viewBox="0 0 18 18">
  <path fill="#6C6F80" fill-rule="evenodd" d="M2.69 15.31c.294.293.647.44 1.06.44h10.5a1.45 1.45 0 0 0 1.06-.44 1.45 1.45 0 0 0 .44-1.06V3.75c0-.413-.147-.766-.44-1.06a1.446 1.446 0 0 0-1.06-.44H3.75c-.413 0-.766.147-1.06.44-.293.294-.44.647-.44 1.06v10.5c0 .412.147.766.44 1.06Zm5.56-1.06h-4.5V10.5h4.5v3.75Zm1.5 0h4.5V10.5h-4.5v3.75ZM14.25 9V5.25h-4.5V9h4.5Zm-6-3.75V9h-4.5V5.25h4.5Z" clip-rule="evenodd"/>
</svg>
